!!!COM: Paul Hindemith
!!!OTL: [T679_Hin-w90p51m72-79]
**kern	**dynam	**kern	**dynam	**kern	**kern	**kern	**kern	**kern	**kern	**kern
*part9	*part9	*part8	*part8	*part7	*part6	*part5	*part4	*part3	*part2	*part1
*staff9	*	*staff8	*	*staff7	*staff6	*staff5	*staff4	*staff3	*staff2	*staff1
*I"Violin 1	*	*I"Timpani	*	*I"Trombone 2. Tuba	*I"Trombone 1.	*I"Trumpet in Bb	*I"Horn in F 2.3.	*I"Horn in F 1.	*I"Bassoon 1.2.	*I"Piccolo
*I'1.Vln.	*	*I'Timp.	*	*I'2.Tbn. Tba.	*I'1.Tbn.	*I'Tpt.	*I'2.3.Hn.	*I'1.Hn.	*I'1.2.Bsn.	*I'Picc.
!!pagebreak:original
*clefG2	*	*clefF4	*	*clefF4	*clefF4	*clefG2	*clefG2	*clefG2	*clefF4	*clefG2
*	*	*	*	*	*	*ITrd1c2	*ITrd4c7	*ITrd4c7	*	*ITrd0c0
*k[]	*	*k[]	*	*k[]	*k[]	*k[b-e-]	*k[b-]	*k[b-]	*k[]	*k[]
*	*	*	*	*	*	*	*	*	*	*
*M3/4	*	*M3/4	*	*M3/4	*M3/4	*M3/4	*M3/4	*M3/4	*M3/4	*M3/4
=1	=1	=1	=1	=1	=1	=1	=1	=1	=1	=1
*	*	*	*	*	*	*	*^	*	*	*
!	!	!	!	!LO:TX:a:Bi:t=2	!LO:TX:a:Bi:t=2	!	!	!	!	!	!LO:TX:t=[half-dot]=92
!	!	!	!	!LO:TX:b:t=[ff]	!LO:TX:b:t=[ff]	!LO:TX:b:t=[ff]	!LO:TX:b:t=[ff]	!	!LO:TX:b:t=[ff]	!	!LO:TX:b:t=[ff]
4%3r	.	4%3r	.	8%3DD 8%3AA	8%3c	4bX	8eL	2.r	8gL	4%3r	8bL
.	.	.	.	.	.	.	8eJ	.	8gJ	.	8cc#X
.	.	.	.	.	.	4cc	4d	.	4f#X	.	8dd
.	.	.	.	8%3EE 8%3BB	8%3An	.	.	.	.	.	8dd#X
.	.	.	.	.	.	4r	4c	.	4e	.	8ee
.	.	.	.	.	.	.	.	.	.	.	8ff#XJ
=2	=2	=2	=2	=2	=2	=2	=2	=2	=2	=2	=2
!	!	!	!	!	!	!	!	!	!	!LO:TX:b:t=[ff]	!
4r	.	[2.BBt	f	[2.BB [2.F#X	(2B	8bXL	4BX	[2.B	4d#X	[2.BB	8aaL
.	.	.	.	.	.	8bJ	.	.	.	.	8ggJ
4r	.	.	.	.	.	4cc#X	4r	.	4r	.	4bb
(16qqa/LL	mf	.	.	.	.	.	.	.	.	.	.
16qqa#X/JJ	.	.	.	.	.	.	.	.	.	.	.
*	*	*	*	*	*clefC4	*	*	*	*	*	*
4b)	.	.	.	.	[4c#X)	4dd#X	4r	.	8bXL	.	4r
.	.	.	.	.	.	.	.	.	8bJ	.	.
=3	=3	=3	=3	=3	=3	=3	=3	=3	=3	=3	=3
4r	.	4BB]	.	4BB] 4F#]	4c#]	4eeX	2.r	4B]	4a	4BB]	4%3r
4r	.	4r	.	2FF#X 2C#X	2d#X	4r	.	2A#X	4g#X	4r	.
(16qqa/LL	.	.	.	.	.	.	.	.	.	.	.
!LO:TX:b:i:t=cresc.	!	!	!	!	!	!	!	!	!	!	!
16qqa#X/JJ	.	.	.	.	.	.	.	.	.	.	.
4b)	.	4r	.	.	.	8bXL	.	.	4f#X	4r	.
.	.	.	.	.	.	8bJ	.	.	.	.	.
=4	=4	=4	=4	=4	=4	=4	=4	=4	=4	=4	=4
4r	.	4%3r	.	((2CC#X 2GG#X	(2e	4cc#X	2.r	(2BX	4r	4%3r	4%3r
(16qqa/LL	.	.	.	.	.	.	.	.	.	.	.
16qqa#X/JJ	.	.	.	.	.	.	.	.	.	.	.
4b)	.	.	.	.	.	4dd#X	.	.	8bXL	.	.
.	.	.	.	.	.	.	.	.	8bJ	.	.
4r	.	.	.	[4CCn [4GGn))	[4fn)	4eeX	.	[4c)	4a	.	.
!!pagebreak:original
=5	=5	=5	=5	=5	=5	=5	=5	=5	=5	=5	=5
4r	.	4%3r	.	4CC] 4GG]	4f]	4r	2.r	4c]	4g	4%3r	4%3r
4r	.	.	.	2GG 2D	4c	8aL	.	4F	4f	.	.
.	.	.	.	.	.	8aJ	.	.	.	.	.
(16qqa/LL	.	.	.	.	.	.	.	.	.	.	.
16qqa#X/JJ	.	.	.	.	.	.	.	.	.	.	.
4b)	.	.	.	.	4d	4bX	.	4G	4r	.	.
=6	=6	=6	=6	=6	=6	=6	=6	=6	=6	=6	=6
!	!	!	!	!	!LO:TX:a:Bi:t=2	!	!LO:TX:b:Bi:t=2	!	!	!	!
4r	.	2.FFT	.	2.FF 2.C	8%3e-X	4cc	2.r	8%3A-X	8b-L	2.FF	4%3r
.	.	.	.	.	.	.	.	.	8b-J	.	.
(16qqa#X/LL	.	.	.	.	.	.	.	.	.	.	.
16qqb/JJ	.	.	.	.	.	.	.	.	.	.	.
4ccn)	.	.	.	.	.	4dd	.	.	4a-X	.	.
.	.	.	.	.	8%3d	.	.	8%3G	.	.	.
4r	.	.	.	.	.	4r	.	.	4b-	.	.
=7	=7	=7	=7	=7	=7	=7	=7	=7	=7	=7	=7
!	!	!	!	!LO:TX:a:Bi:t=2	!LO:TX:a:Bi:t=2	!	!LO:TX:b:Bi:t=2	!	!	!	!
4r	.	4%3r	.	8%3DD 8%3AA	8%3c	8ccL	2.r	8%3F	4f	4%3r	4%3r
.	.	.	.	.	.	8ccJ	.	.	.	.	.
4r	.	.	.	.	.	4eeX	.	.	4r	.	.
.	.	.	.	8%3EE 8%3BB	8%3d	.	.	8%3G	.	.	.
(16qqcc/LL	.	.	.	.	.	.	.	.	.	.	.
16qqcc#X/JJ	.	.	.	.	.	.	.	.	.	.	.
4dd)	.	.	.	.	.	4dd	.	.	8bXL	.	.
.	.	.	.	.	.	.	.	.	8bJ	.	.
=8	=8	=8	=8	=8	=8	=8	=8	=8	=8	=8	=8
4r	.	[2.BBt	.	[2.BB [2.E	(2en	4bX	(2BX	(2G#X	4a	[2.BBB [2.BB	4%3r
(16qqdd/LL	.	.	.	.	.	.	.	.	.	.	.
16qqdd#X/JJ	.	.	.	.	.	.	.	.	.	.	.
4ee)	.	.	.	.	.	4r	.	.	4g#X	.	.
4r	.	.	.	.	[4f#X)	8bL	[4c#X)	(4A)	4f#X	.	.
.	.	.	.	.	.	8bJ	.	.	.	.	.
*	*	*	*	*	*	*	*v	*v	*	*	*
=	=	=	=	=	=	=	=	=	=	=
*-	*-	*-	*-	*-	*-	*-	*-	*-	*-	*-
!!!system-decoration: [(s1,s2)][([(s3,s4)]s5,s6,s7)]s8[(s9)]
